logos/adonisjs-icon.svg

<?xml version="1.0" encoding="UTF-8"?>
<svg width="256px" height="256px" viewBox="0 0 256 256" version="1.1" xmlns="http://www.w3.org/2000/svg" xmlns:xlink="http://www.w3.org/1999/xlink" preserveAspectRatio="xMidYMid">
    <title>Adonis</title>
    <g>
        <path d="M128,256 C24.7657244,256 0,231.234133 0,128 C0,24.7657956 24.7657244,0 128,0 C231.234133,0 256,24.7657956 256,128 C256,231.234133 231.234133,256 128,256 Z M91.7639111,63.3481956 L51.6170667,154.590578 C49.7922133,159.022933 48.2280533,164.757333 48.2280533,169.710933 C48.2280533,192.391111 64.1303467,208.293689 86.8103111,208.293689 C94.2428444,208.293689 100.414578,206.340978 106.690133,204.355556 L106.695111,204.353422 C113.184,202.299733 119.783822,200.211911 128,200.211911 C136.312178,200.211911 142.754133,202.281244 149.117867,204.3264 L149.12,204.327111 C155.329422,206.322489 161.464889,208.293689 169.188978,208.293689 C191.869156,208.293689 207.771733,192.391111 207.771733,169.710933 C207.771733,164.757333 206.207289,159.022933 204.383289,154.590578 L164.2368,63.3481956 C157.457778,47.96736 144.423822,39.6252444 128,39.6252444 C111.576178,39.6252444 98.5415111,47.96736 91.7639111,63.3481956 Z M88.3747556,168.929422 L128,79.2512 L167.104,168.929422 C155.894044,163.454578 141.816889,160.847644 128,160.847644 C113.661867,160.847644 100.105956,163.454578 88.3747556,168.929422 Z" fill="#5A46FF"></path>
    </g>
</svg>

<svg width="256" height="256" xmlns="http://www.w3.org/2000/svg" preserveAspectRatio="xMidYMid">
	<path d="M128 256C24.766 256 0 231.234 0 128 0 24.766 24.766 0 128 0c103.234 0 128 24.766 128 128 0 103.234-24.766 128-128 128ZM91.764 63.348l-40.147 91.243c-1.825 4.432-3.389 10.166-3.389 15.12 0 22.68 15.902 38.583 38.582 38.583 7.433 0 13.605-1.953 19.88-3.938l.005-.003c6.489-2.053 13.089-4.141 21.305-4.141 8.312 0 14.754 2.07 21.118 4.114l.002.001c6.21 1.995 12.345 3.967 20.069 3.967 22.68 0 38.583-15.903 38.583-38.583 0-4.954-1.565-10.688-3.389-15.12l-40.146-91.243c-6.78-15.38-19.813-23.723-36.237-23.723-16.424 0-29.458 8.342-36.236 23.723Zm-3.39 105.581L128 79.251l39.104 89.678c-11.21-5.474-25.287-8.081-39.104-8.081-14.338 0-27.894 2.607-39.625 8.081Z" fill="#5A46FF"/>
</svg>
